svg/battery_off.svg

<svg xmlns="http://www.w3.org/2000/svg" viewBox="0 0 24 24"><path d="M18 14.8 7.21 4H9V2h6v2h1.67A1.34 1.34 0 0 1 18 5.33m0 12.02L3.38 2.73 2.11 4 6 7.89v12.78A1.34 1.34 0 0 0 7.33 22h9.34A1.34 1.34 0 0 0 18 20.67v-.78l2.84 2.84 1.27-1.27Z"/></svg>

<?xml version="1.0" encoding="UTF-8"?><!DOCTYPE svg PUBLIC "-//W3C//DTD SVG 1.1//EN" "http://www.w3.org/Graphics/SVG/1.1/DTD/svg11.dtd"><svg xmlns="http://www.w3.org/2000/svg" xmlns:xlink="http://www.w3.org/1999/xlink" version="1.1" id="mdi-battery-off" width="24" height="24" viewBox="0 0 24 24"><path d="M18 14.8L7.21 4H9V2H15V4H16.67A1.34 1.34 0 0 1 18 5.33M18 17.35L3.38 2.73L2.11 4L6 7.89V20.67A1.34 1.34 0 0 0 7.33 22H16.67A1.34 1.34 0 0 0 18 20.67V19.89L20.84 22.73L22.11 21.46Z" /></svg>
